X:031 
T:Celia O'Gara*
F:file ID: cre.5/031celia_o
B:CRE5.010 (gan ainm)
M:6/8
Q:160
R:jig
K:G
D|GBB Acc|Bdd c2e|dBB cAA|BGG A2D|
GBB Acc|Bdd c2e|dBB cAA|BGG G2:|
|:D|GBd gfg|ecc c2B|Ace a2g|fdd d2B|
GBd gfg|ecc c2e|dBB cAA|1BGG G2:|\
[2 BGG G3-|G6|]

%%%

